flags/other/klingon.svg

<svg xmlns="http://www.w3.org/2000/svg" width="512" height="512" fill="none"><path fill="var(--flag-palette-bright-red, #d80027)" d="M0 0h512v512H0z"/><path fill="var(--flag-palette-white, #eeeeee)" d="M256 403a126 126 0 1 0 0-252 126 126 0 0 0 0 252"/><path fill="var(--flag-palette-black, #333333)" d="M256 355c15.1-25.3 28.9-39.7 44-65-3.5-15.8-17.3-7.1-43-204-29 198.4-44.5 189.4-46 202 14.8 25.8 30.2 41.2 45 67m-53-51c11.5 17.7 32.5 42.3 44 60-69.2 4.6-83.4 21.3-107 46-4.2-81.8 50.6-81.5 63-106m63 59c13.3-19.2 29.7-41.8 43-61 22.6 46.3 52.6 59.7 80 62-21.4 30.2-76.8 27.2-123-1"/></svg>

<svg width="512" height="512" viewBox="0 0 512 512" fill="none" xmlns="http://www.w3.org/2000/svg">
<rect width="512" height="512" fill="var(--flag-palette-bright-red, #d80027)"/>
<path d="M256 403C325.588 403 382 346.588 382 277C382 207.412 325.588 151 256 151C186.412 151 130 207.412 130 277C130 346.588 186.412 403 256 403Z" fill="var(--flag-palette-white, #eeeeee)"/>
<path d="M256 355C271.1 329.7 284.9 315.3 300 290C296.5 274.2 282.7 282.9 257 86C228 284.4 212.5 275.4 211 288C225.8 313.8 241.2 329.2 256 355ZM203 304C214.5 321.7 235.5 346.3 247 364C177.8 368.6 163.6 385.3 140 410C135.8 328.2 190.6 328.5 203 304ZM266 363C279.3 343.8 295.7 321.2 309 302C331.6 348.3 361.6 361.7 389 364C367.6 394.2 312.2 391.2 266 363Z" fill="var(--flag-palette-black, #333333)"/>
</svg>
